X:0408
T:The Fife Hunt.
N:first part isn't marked repeated
M:C
L:1/8
Q:1/2=104
I: || ::
Z:Jack Campin * www.campin.me.uk * 2009
K:D
g|fdTd2 AFTF2|Eeed     e2eg|fdTd2 AFTF2|D(dd)c d2-d||
g|fdad  bdad |B(ee)^d  e3 g|fdad  bdad |Addc   d2dg |
  fdad  bdad |B(ee)^d Te2eg|fadf  gbec |A(dd)c d2d :|
<end>
<start>
